!!!OTL: 185. Des Knaben Berglied.
!!!COM: Karl Groos
!!!ODT: 1817
!!!ARE: Europa, Mitteleuropa, Deutschland
!!!SCT: B0185
!!!TXL: @@DE
!!!YEM: Copyright 1995, estate of Helmut Schaffrath.
**kern	**text
*ICvox	*
*Ivox	*
*clefG2	*
*M3/4	*
*k[f#]	*
*G:	*
!LO:TX:a:t=Ruhig heiter.	!
{4d	Jch
=1	=1
2g	bin
4b	vom
=2	=2
2dd	Berg
4b	der
=3	=3
2dd	Hir-
4b	-ten-
=4	=4
2a}	-knab,
{4b/	ſeh
=5	=5
2g	auf
4b	die
=6	=6
2dd	Schlöſ-
4b	-ſer
=7	=7
2dd	all
4b	her-
=8	=8
2a}	-ab.
{4a	Die
=9	=9
(4b/	Son-
4a)	.
4g	-ne
=10	=10
2dd	ſtrahlt
4a	am
=11	=11
(4b/	er-
4a)	.
4g	-ſten
=12	=12
2d}	hier,
{4g	am
=13	=13
(4b/	läng-
4a)	.
4g	-ſten
=14	=14
(4dd	wei-
4cc)	.
4a	-let
=15	=15
(4b/	ſie
4a)	.
4g	bei
=16	=16
2dd;}	mir.
{4d	Jch
=17	=17
2g	bin
4b	der
=18	=18
2dd	Knab
4b	vom
=19	=19
2.a	Ber-
=20	=20
2g}	-ge.
==	==
!!!AGN: Natur - Lied, Berg
!!!GTL: Naturfreude, Waldlust, Landleben, Berg- und Wasserfahrt
!!!ONB: ESAC (Essen Associative Code) Database: BOEHME
!!!AMT: simple triple
!!!AIN: vox
!!!EED: Helmut Schaffrath
!!!EEV: 1.0
!!@@COMMENT:"Gedicht von Uhland 1806. Ʒuerſt in L. v. Seckendorfs Muſenalmach für 1808. Regensburg. S. 134.
!!Mel. von K. Groos in "Lieder für Jung und Alt". Berlin, 1818 Nr. 36.
!!Der Vortrag ſei frei, nicht ſtreng im Takte, ſondern nach Art der Kuhreihen bald eilend, bald
!!ʒögernd. - Dies Lied war ein Lieblingslied der alten Turner 1817-19."
!!@@END:
!!!Text: L. Uhland
!!!URL-scan: https://archive.org/details/BoehmeVtLieder1895/page/n179/mode/2up
!!!ENC: Anna Maria Matuszewska
!!!EEV: 2024/21/06
*-	*-
